X:1
T:Title
%%score { ( 1 3 ) | ( 2 4 ) }
L:1/8
Q:1/4=100
M:4/4
K:G
V:1 treble nm="Grand Piano"
V:3 treble 
V:2 bass 
V:4 bass 
V:1
 [B,DG]2 [G,B,D]2 [B,DG]2 [G,B,D]2 | [G,DG]2 [DB]2 A4 | B2 d2 d4 | z4 A4 | %4
w: Robert~Lowry * * *||||
 [CA]2 [CE]2 [CA]2 [CE]2 | z4 B2 z2 | [B,DG]2 [DFA]2 [DGB]4 | [CEA]2 [CDF]2 [B,DG]4 |] %8
w: ||||
V:2
 G,,2 G,,2 G,,2 G,,2 | B,,2 [G,,G,]2 [D,F,D]4 | [G,D]2 [G,B,D]2 [G,B,D]4 | z4 D2 z2 | %4
 [A,,E,]2 [A,,A,]2 [A,,E,]2 [A,,A,]2 | [C,A,]2 [A,,A,]2 [B,,^G,]2 C,2 | D,2 D,2 G,4 | %7
 C,2 D,2 G,,4 |] %8
V:3
 x8 | x8 | x8 | c2 B2 z2 C2 | x8 | [EA]2 [Ec]2 E2- [A,EA]2 | x8 | x8 |] %8
V:4
 x8 | x8 | x8 | [F,A,D]2 [G,D]2 [D,F,]4 | x8 | x8 | x8 | x8 |] %8

